thought-bubble.svg

<svg fill="currentColor" viewBox="0 0 24 24"><path d="M3.5 19A1.5 1.5 0 0 1 5 20.5 1.5 1.5 0 0 1 3.5 22 1.5 1.5 0 0 1 2 20.5 1.5 1.5 0 0 1 3.5 19m5-3a2.5 2.5 0 0 1 2.5 2.5A2.5 2.5 0 0 1 8.5 21 2.5 2.5 0 0 1 6 18.5 2.5 2.5 0 0 1 8.5 16m6-1c-1.19 0-2.27-.5-3-1.35-.73.85-1.81 1.35-3 1.35-1.96 0-3.59-1.41-3.93-3.26A4.02 4.02 0 0 1 2 8a4 4 0 0 1 4-4c.26 0 .5.03.77.07C7.5 3.41 8.45 3 9.5 3c1.19 0 2.27.5 3 1.35.73-.85 1.81-1.35 3-1.35 1.96 0 3.59 1.41 3.93 3.26A4.02 4.02 0 0 1 22 10a4 4 0 0 1-4 4l-.77-.07c-.73.66-1.68 1.07-2.73 1.07"/></svg>

<svg  viewBox="0 0 24 24" fill="currentColor"><path  d="M3.5,19A1.5,1.5 0 0,1 5,20.5A1.5,1.5 0 0,1 3.5,22A1.5,1.5 0 0,1 2,20.5A1.5,1.5 0 0,1 3.5,19M8.5,16A2.5,2.5 0 0,1 11,18.5A2.5,2.5 0 0,1 8.5,21A2.5,2.5 0 0,1 6,18.5A2.5,2.5 0 0,1 8.5,16M14.5,15C13.31,15 12.23,14.5 11.5,13.65C10.77,14.5 9.69,15 8.5,15C6.54,15 4.91,13.59 4.57,11.74C3.07,11.16 2,9.7 2,8A4,4 0 0,1 6,4C6.26,4 6.5,4.03 6.77,4.07C7.5,3.41 8.45,3 9.5,3C10.69,3 11.77,3.5 12.5,4.35C13.23,3.5 14.31,3 15.5,3C17.46,3 19.09,4.41 19.43,6.26C20.93,6.84 22,8.3 22,10A4,4 0 0,1 18,14L17.23,13.93C16.5,14.59 15.55,15 14.5,15Z"/></svg>
